T: Pedar Bis
M: 4/4
L: 1/8
K: Ador
|:A>B cA Bc d2|c/B/A Bc d2 d2|1 AB cA Bc d2|c/B/A Bc A2 A2:|                              2 e>e dc Bc d2|c/B/A Bc A2 A2||
